image/placeholder.svg

<svg width="15" height="15" viewBox="0 0 15 15" fill="none" xmlns="http://www.w3.org/2000/svg">
<path d="M7.48959 0C4.45827 0 1.99219 2.46609 1.99219 5.4974C1.99219 6.88992 2.86961 8.85738 4.60018 11.3452C5.8651 13.1638 7.10918 14.5711 7.1616 14.6301L7.48959 15L7.81769 14.6301C7.86999 14.5711 9.11407 13.1638 10.3791 11.3452C12.1096 8.85738 12.9871 6.88992 12.9871 5.4974C12.9871 2.46609 10.5209 0 7.48959 0ZM9.66396 10.8373C8.80898 12.0673 7.94483 13.1259 7.48959 13.666C7.03548 13.1274 6.17455 12.0728 5.32013 10.8444C3.7167 8.53935 2.86915 6.69033 2.86915 5.4974C2.86915 2.94971 4.9419 0.876961 7.48959 0.876961C10.0374 0.876961 12.11 2.94971 12.11 5.4974C12.11 6.68907 11.2642 8.53558 9.66396 10.8373Z" fill="#999999"/>
<path d="M7.48866 2.03174C5.6996 2.03174 4.24414 3.4872 4.24414 5.27625C4.24414 7.06531 5.6996 8.52088 7.48866 8.52088C9.27782 8.52088 10.7333 7.06531 10.7333 5.27625C10.7333 3.4872 9.27782 2.03174 7.48866 2.03174ZM7.48866 7.64392C6.18323 7.64392 5.1211 6.58179 5.1211 5.27625C5.1211 3.97083 6.18323 2.9087 7.48866 2.9087C8.7942 2.9087 9.85632 3.97083 9.85632 5.27625C9.85632 6.58179 8.7942 7.64392 7.48866 7.64392Z" fill="#999999"/>
</svg>

<svg width="15" height="15" fill="none" xmlns="http://www.w3.org/2000/svg"><path d="M7.49 0a5.504 5.504 0 0 0-5.498 5.497c0 1.393.878 3.36 2.608 5.848a39.217 39.217 0 0 0 2.562 3.285l.328.37.328-.37a39.274 39.274 0 0 0 2.561-3.285c1.73-2.488 2.608-4.455 2.608-5.848A5.504 5.504 0 0 0 7.49 0Zm2.174 10.837a39.876 39.876 0 0 1-2.174 2.829 39.837 39.837 0 0 1-2.17-2.822C3.717 8.54 2.87 6.69 2.87 5.497A4.626 4.626 0 0 1 7.49.877a4.626 4.626 0 0 1 4.62 4.62c0 1.192-.846 3.039-2.446 5.34Z" fill="#999"/><path d="M7.489 2.032a3.248 3.248 0 0 0-3.245 3.244A3.248 3.248 0 0 0 7.49 8.521a3.248 3.248 0 0 0 3.244-3.245A3.248 3.248 0 0 0 7.49 2.032Zm0 5.612A2.37 2.37 0 0 1 5.12 5.276 2.37 2.37 0 0 1 7.49 2.91a2.37 2.37 0 0 1 2.367 2.367A2.37 2.37 0 0 1 7.49 7.644Z" fill="#999"/></svg>
